app/dist/common/images/altisource.svg

<svg height="18" width="18" xmlns="http://www.w3.org/2000/svg"><path d="m0 0h18v18h-18z" fill="#f0f3fa"/><path d="m13 4h-2v1.01l-1.98-1.01-6.02 3.06v.94l6.02-3 5.98 3v-.94l-2-1.02z" fill="#61bd00"/><path d="m5.54 13 2.89-6h1.17l2.85 6h-1.55l-.68-1.41h-2.45l-.67 1.41zm2.71-2.57.75-1.59.72 1.59z" fill="#465761" fill-rule="evenodd"/></svg>

<!-- by TradingView --><svg xmlns="http://www.w3.org/2000/svg" width="18" height="18"><path fill="#F0F3FA" d="M0 0h18v18H0z"/><path d="M13 4h-2v1.01L9.02 4 3 7.06V8l6.02-3L15 8v-.94l-2-1.02V4z" fill="#61BD00"/><path fill-rule="evenodd" d="M5.54 13l2.89-6H9.6l2.85 6H10.9l-.68-1.41H7.77L7.1 13H5.54zm2.71-2.57L9 8.84l.72 1.59H8.25z" fill="#465761"/></svg>
